X:18579
T:Welcome Here Again
M:2/4l
S:unknown
I:speed 250
K:D
|:D3E D2d2 | A2F2 A2d2 | D3E D2d2 | A2F2 E4 | 
D3E D2d2 | A2F2 A2d2 | f2d2 e2f2 | d4 d4:|  
|: f2d2 d2ef | g2f2 e2d2 | c2A2 e2A2 | c2A2 e2A2 |
f2d2 d2ef | g2f2 e2d2 | c2d2 e2f2 d4 d4:|


